packages/bezier-icons/icons/chat-bubble-alt-off.svg

<svg width="24" height="24" viewBox="0 0 24 24" fill="none" xmlns="http://www.w3.org/2000/svg">
<path fill-rule="evenodd" clip-rule="evenodd" d="M3.70711 2.70711C3.31658 3.09763 3.31658 3.7308 3.70711 4.12132L20.6777 21.0919C21.0682 21.4824 21.7014 21.4824 22.0919 21.0919C22.4824 20.7014 22.4824 20.0682 22.0919 19.6777L20.1245 17.7103C21.5992 16.1773 22.5 14.2042 22.5 12C22.5 6.87529 17.6311 3 12 3C10.0781 3 8.24507 3.4514 6.66403 4.24982L5.12132 2.70711C4.7308 2.31658 4.09763 2.31658 3.70711 2.70711ZM8.1632 5.74898L18.706 16.2918C19.8398 15.0857 20.5 13.5813 20.5 12C20.5 8.28815 16.8623 5 12 5C10.6004 5 9.3023 5.27243 8.1632 5.74898ZM1.5 12C1.5 9.67045 2.50609 7.59908 4.13253 6.03253L5.5494 7.4494C4.25993 8.69541 3.5 10.3034 3.5 12C3.5 14.2833 4.84342 16.3746 7.03588 17.679L7.69118 18.0688L7.48867 18.804C7.31856 19.4215 7.08427 20.0074 6.83962 20.5258C7.63792 20.2159 8.53521 19.751 9.3422 19.0609L9.70311 18.7523L10.1704 18.837C10.7588 18.9436 11.3709 19 12 19C13.5477 19 14.9713 18.6669 16.193 18.093L17.6728 19.5728C16.0179 20.4814 14.0599 21 12 21C11.4131 21 10.8368 20.9588 10.2749 20.8793C8.7919 22.0248 7.17683 22.5834 6.12433 22.8496C5.46261 23.017 4.86463 22.7145 4.55356 22.2407C4.25404 21.7844 4.20883 21.1639 4.52033 20.6348C4.78995 20.1768 5.09523 19.592 5.33525 18.9584C3.03108 17.3352 1.5 14.8483 1.5 12Z" fill="#313234"/>
</svg>

<svg xmlns="http://www.w3.org/2000/svg" width="24" height="24" fill="none" viewBox="0 0 24 24"><path fill="#313234" fill-rule="evenodd" d="M3.707 2.707a1 1 0 0 0 0 1.414l16.97 16.97a1 1 0 0 0 1.415-1.413l-1.967-1.968C21.599 16.177 22.5 14.204 22.5 12c0-5.125-4.869-9-10.5-9-1.922 0-3.755.451-5.336 1.25L5.121 2.707a1 1 0 0 0-1.414 0M8.163 5.75l10.543 10.543C19.84 15.086 20.5 13.582 20.5 12c0-3.712-3.638-7-8.5-7-1.4 0-2.698.272-3.837.749M1.5 12c0-2.33 1.006-4.4 2.633-5.967l1.416 1.416C4.26 8.695 3.5 10.303 3.5 12c0 2.283 1.343 4.375 3.536 5.679l.655.39-.202.735a11 11 0 0 1-.65 1.722c.799-.31 1.696-.775 2.503-1.465l.361-.309.467.085q.884.162 1.83.163c1.548 0 2.971-.333 4.193-.907l1.48 1.48C16.018 20.48 14.06 21 12 21q-.881 0-1.725-.12c-1.483 1.145-3.098 1.703-4.15 1.97a1.44 1.44 0 0 1-1.571-.61 1.52 1.52 0 0 1-.034-1.605c.27-.458.575-1.043.815-1.677C3.031 17.335 1.5 14.848 1.5 12" clip-rule="evenodd"/></svg>
